X: 12
T:Down the Glen
% Nottingham Music Database
S:McCusker Brothers
M:4/4
L:1/8
R:Hornpipe
K:D

A2|"D"DDFA "G"BA B2/3c2/3d2/3|"D"DDFA d2 c2/3d2/3^d2/3|"A"eAce "D"fe f2/3^g2/3a2/3|
"Em" e2/3f2/3e2/3 d2/3c2/3B2/3 "A7" A2/3B2/3A2/3 G2/3F2/3G2/3|"D"ADFA "G"BA B2/3c2/3d2/3|
"D"DDFA d2 c2/3d2/3^d2/3|"A"eAce "D"faec|"A7"dedc "D"d2:|:

c2/3d2/3^d2/3|"A"eAce "D"fe f2/3^g2/3a2/3|"A"eAce "D"fe f2/3^g2/3a2/3|
"A"ea^gf "E7"edcB|"A"A2/3c2/3e2/3 a2/3e2/3c2/3 "A7"A2G2|"D"F2/3E2/3D2/3 FA dfaf|
"G"gBdg bbag|"D"f2/3a2/3f2/3 df "A"edce|"D"df e2/3d2/3c2/3 d2:|


